startshape BOARD 

rule BOARD {
	4* {y 2} SQUARES {x 0}
	4* {y 2} SQUARES {x 1 y 1}
	4* {y 2} SQUARES { sat 1 hue 120 r 0 b 0.5 x 1 }
	4* {y 2} SQUARES { sat 1 hue 120 r 0 b 0.5 x 0 y 1}
}

rule SQUARES {
	4* {x 2} SQUARE {}
}