startshape SHRIMP

rule SHRIMP{
	BODY   {x 0.2 y 0.5 size 0.2}
	EYE      {x 0.22 y 0.5 z 1 size 0.03}
}

rule  BODY {
	SQUARE {hue 40 sat 0.75 b 1}
	BODY {size 0.8 y 0.8 r 25}
}
 
rule EYE {
	CIRCLE {hue 0}
 }


